; HEADER_BLOCK_START
; generated by Creality_Print V5.1.1.9490 on 2024-08-03 at 12:39:28
; total layer number: 45
; filament_density: 1.24
; filament_diameter: 1.75
; max_z_height: 9.00
; HEADER_BLOCK_END

; MINX = 25.56
; MINY = 15.44
; MINZ = 0.00
; MAXX = 204.90
; MAXY = 199.51
; MAXZ = 9.00

; THUMBNAIL_BLOCK_START

;
; THUMBNAIL_BLOCK_END

; THUMBNAIL_BLOCK_START

;
; THUMBNAIL_BLOCK_END

; external perimeters extrusion width = 0.42mm
; perimeters extrusion width = 0.45mm
; infill extrusion width = 0.45mm
; solid infill extrusion width = 0.42mm
; top infill extrusion width = 0.42mm
; first layer extrusion width = 0.46mm

; external perimeters extrusion width = 0.42mm
; perimeters extrusion width = 0.45mm
; infill extrusion width = 0.45mm
; solid infill extrusion width = 0.42mm
; top infill extrusion width = 0.42mm
; first layer extrusion width = 0.46mm

; EXECUTABLE_BLOCK_START
M73 P0 R69
M201 X5000 Y5000 Z500 E5000
M203 X500 Y500 Z30 E100
M204 P5000 R2500 T5000 ; sets acceleration (P, T) and retract acceleration (R), mm/sec^2
M205 X10.00 Y10.00 Z0.40 E5.00 ; sets the jerk limits, mm/sec
;TYPE:Custom
M220 S100 ;Reset Feedrate 
M221 S100 ;Reset Flowrate 
 
M140 S60 ;Set final bed temp 
G28 ;Home 
 
G92 E0 ;Reset Extruder 
G1 Z2.0 F3000 ;Move Z Axis up 
M104 S220 ;Set final nozzle temp 
G1 X-2.1 Y20 Z0.28 F5000.0 ;Move to start position 
M190 S60 ;Wait for bed temp to stabilize 
M109 S220 ;Wait for nozzle temp to stabilize 
G1 X-2.1 Y145.0 Z0.28 F1500.0 E15 ;Draw the first line 
G1 X-2.4 Y145.0 Z0.28 F5000.0 ;Move to side a little 
G1 X-2.4 Y20 Z0.28 F1500.0 E30 ;Draw the second line 
G92 E0  ;Reset Extruder 
G1 E-1.0000 F1800 ;Retract a bit 
G1 Z2.0 F3000 ;Move Z Axis up 
G1 E0.0000 F1800
G90
G21
M83 ; use relative distances for extrusion
; filament start gcode
M106 S0
;LAYER_CHANGE
;Z:0.2
;HEIGHT:0.2
;BEFORE_LAYER_CHANGE
;0.2
G92 E0

G1 E-1.2 F1800
;_SET_FAN_SPEED_CHANGING_LAYER
M204 P500
M205 X8 Y8
; printing object 24 x Neopixel ring cover 92mm.stl id:0 copy 0
M204 T500
G1 Z.4 F9000
G1 X149.47 Y16.33
G1 Z.4
G1 Z.2
G1 E1.2 F1800
;TYPE:Inner wall
;WIDTH:0.459999
G1 X149.513 Y16.323 E.00147
G1 X154.399 Y16.084 E.16628
G1 X159.215 Y16.32 E.16389
G1 X164.125 Y17.041 E.16866
G1 X168.87 Y18.231 E.16625
G1 X173.477 Y19.878 E.16629
G1 X177.9 Y21.97 E.16627
G1 X182.095 Y24.485 E.16625
G1 X186.025 Y27.399 E.16628
G1 X189.65 Y30.685 E.16627
G1 X192.935 Y34.31 E.16627
G1 X195.849 Y38.24 E.16628
G1 X198.365 Y42.435 E.16625
G1 X200.457 Y46.858 E.16627
G1 X202.104 Y51.465 E.16629
G1 X203.294 Y56.21 E.16627
G1 X204.011 Y61.049 E.16626
G1 X204.251 Y65.936 E.16628
G1 X204.011 Y70.822 E.16628
G1 X203.294 Y75.661 E.16626
G1 X202.104 Y80.407 E.16627
G1 X200.457 Y85.014 E.16629
G1 X198.365 Y89.436 E.16627
G1 X195.849 Y93.632 E.16625
G1 X192.935 Y97.562 E.16628
G1 X189.65 Y101.187 E.16627
G1 X186.025 Y104.472 E.16627
G1 X182.095 Y107.386 E.16628
G1 X177.9 Y109.901 E.16625
G1 X173.477 Y111.993 E.16627
G1 X168.87 Y113.641 E.16629
G1 X164.125 Y114.83 E.16627
G1 X159.286 Y115.548 E.16626
G1 X154.399 Y115.788 E.16628
G1 X149.513 Y115.548 E.16628
G1 X144.674 Y114.83 E.16626
G1 X139.928 Y113.641 E.16627
G1 X135.321 Y111.993 E.16629
G1 X130.899 Y109.901 E.16627
G1 X126.703 Y107.386 E.16625
G1 X122.773 Y104.472 E.16628
G1 X119.148 Y101.187 E.16627
G1 X115.863 Y97.562 E.16627
G1 X112.949 Y93.632 E.16628
G1 X110.433 Y89.436 E.16625
G1 X108.342 Y85.014 E.16627
G1 X106.694 Y80.407 E.16629
G1 X105.504 Y75.661 E.16627
G1 X104.787 Y70.822 E.16626
G1 X104.547 Y65.936 E.16628
G1 X104.787 Y61.049 E.16628
G1 X105.504 Y56.21 E.16626
G1 X106.694 Y51.465 E.16627
G1 X108.342 Y46.858 E.16629
G1 X110.433 Y42.435 E.16627
G1 X112.949 Y38.24 E.16625
G1 X115.863 Y34.31 E.16628
G1 X119.148 Y30.685 E.16627
G1 X122.773 Y27.399 E.16627
G1 X126.703 Y24.485 E.16628
G1 X130.899 Y21.97 E.16625
G1 X135.321 Y19.878 E.16627
G1 X139.928 Y18.231 E.16629
G1 X144.674 Y17.041 E.16627
G1 X149.43 Y16.336 E.16343
G1 X149.409 Y15.917 F9000
;TYPE:Outer wall
G1 F1800
G1 X149.472 Y15.908 E.00217
G1 X154.399 Y15.666 E.16767
G1 X159.256 Y15.904 E.16527
G1 X164.206 Y16.632 E.17005
G1 X168.991 Y17.831 E.16766
G1 X173.637 Y19.492 E.16769
G1 X178.097 Y21.602 E.16766
G1 X182.327 Y24.138 E.16765
G1 X186.29 Y27.077 E.16767
G1 X189.945 Y30.389 E.16766
G1 X193.258 Y34.045 E.16766
G1 X196.197 Y38.008 E.16767
G1 X198.733 Y42.238 E.16765
G1 X200.842 Y46.698 E.16766
G1 X202.504 Y51.344 E.16769
G1 X203.703 Y56.129 E.16766
G1 X204.427 Y61.008 E.16766
G1 X204.669 Y65.936 E.16767
G1 X204.427 Y70.863 E.16767
G1 X203.703 Y75.743 E.16766
G1 X202.504 Y80.528 E.16766
G1 X200.842 Y85.174 E.16769
G1 X198.733 Y89.633 E.16766
G1 X196.197 Y93.864 E.16765
G1 X193.258 Y97.827 E.16767
G1 X189.945 Y101.482 E.16766
G1 X186.29 Y104.795 E.16766
G1 X182.327 Y107.733 E.16767
G1 X178.097 Y110.27 E.16765
G1 X173.637 Y112.379 E.16766
G1 X168.991 Y114.04 E.16769
G1 X164.206 Y115.24 E.16766
G1 X159.327 Y115.963 E.16766
G1 X154.399 Y116.205 E.16767
G1 X149.472 Y115.963 E.16767
G1 X144.592 Y115.24 E.16766
G1 X139.807 Y114.04 E.16766
G1 X135.161 Y112.379 E.16769
G1 X130.702 Y110.27 E.16766
G1 X126.471 Y107.733 E.16765
G1 X122.508 Y104.795 E.16767
G1 X118.853 Y101.482 E.16766
G1 X115.54 Y97.827 E.16766
G1 X112.602 Y93.864 E.16767
G1 X110.065 Y89.633 E.16765
G1 X107.956 Y85.174 E.16766
G1 X106.294 Y80.528 E.16769
G1 X105.095 Y75.743 E.16766
G1 X104.371 Y70.863 E.16766
G1 X104.129 Y65.936 E.16767
G1 X104.371 Y61.008 E.16767
G1 X105.095 Y56.129 E.16766
G1 X106.294 Y51.344 E.16766
G1 X107.956 Y46.698 E.16769
G1 X110.065 Y42.238 E.16766
G1 X112.602 Y38.008 E.16765
G1 X115.54 Y34.045 E.16767
G1 X118.853 Y30.389 E.16766
G1 X122.508 Y27.077 E.16766
G1 X126.471 Y24.138 E.16767
M73 P0 R68
G1 X130.702 Y21.602 E.16765
G1 X135.161 Y19.492 E.16766
G1 X139.807 Y17.831 E.16769
G1 X144.592 Y16.632 E.16766
G1 X149.369 Y15.923 E.16413
G1 E-.84
;WIPE_START
G1 X149.472 Y15.908 E-.03736
G1 X150.367 Y15.864 E-.32264
;WIPE_END
G1 Z.6 F9000
G1 X131.113 Y75.418 Z.6
G1 Z.2
G1 E1.2 F1800
;TYPE:Inner wall
G1 X130.332 Y73.237 E.07875
G1 X129.732 Y70.842 E.0839
G1 X129.369 Y68.401 E.08387
G1 X129.248 Y65.936 E.0839
G1 X129.369 Y63.47 E.0839
G1 X129.732 Y61.029 E.08387
G1 X130.332 Y58.635 E.0839
G1 X131.164 Y56.311 E.08388
G1 X132.219 Y54.08 E.08386
G1 X133.487 Y51.963 E.08389
G1 X134.957 Y49.981 E.08387
G1 X136.615 Y48.152 E.0839
G1 X138.444 Y46.494 E.0839
G1 X140.426 Y45.024 E.08387
G1 X142.544 Y43.755 E.08389
G1 X144.774 Y42.7 E.08386
G1 X147.098 Y41.869 E.08388
G1 X149.493 Y41.268 E.08392
G1 X151.961 Y40.905 E.08477
G1 X154.399 Y40.785 E.08298
G1 X156.865 Y40.906 E.0839
G1 X159.306 Y41.268 E.08387
G1 X161.7 Y41.869 E.0839
G1 X164.024 Y42.7 E.08388
G1 X166.254 Y43.755 E.08386
G1 X168.372 Y45.024 E.08389
G1 X170.354 Y46.494 E.08387
G1 X172.183 Y48.152 E.0839
G1 X173.841 Y49.981 E.0839
G1 X175.311 Y51.963 E.08387
G1 X176.579 Y54.08 E.08389
G1 X177.635 Y56.311 E.08386
G1 X178.466 Y58.635 E.08388
G1 X179.066 Y61.029 E.0839
G1 X179.429 Y63.47 E.08387
G1 X179.55 Y65.936 E.0839
G1 X179.429 Y68.401 E.0839
G1 X179.066 Y70.842 E.08387
G1 X178.466 Y73.237 E.0839
G1 X177.635 Y75.561 E.08388
G1 X176.579 Y77.791 E.08386
G1 X175.311 Y79.909 E.08389
G1 X173.841 Y81.891 E.08387
G1 X172.183 Y83.72 E.0839
G1 X170.354 Y85.377 E.0839
G1 X168.372 Y86.847 E.08387
G1 X166.254 Y88.116 E.08389
G1 X164.024 Y89.171 E.08386
G1 X161.7 Y90.003 E.08388
G1 X159.306 Y90.603 E.0839
G1 X156.865 Y90.965 E.08387
G1 X154.399 Y91.087 E.0839
G1 X151.934 Y90.965 E.0839
G1 X149.493 Y90.603 E.08387
G1 X147.098 Y90.003 E.0839
G1 X144.774 Y89.171 E.08388
G1 X142.544 Y88.116 E.08386
G1 X140.426 Y86.847 E.08389
G1 X138.444 Y85.377 E.08387
G1 X136.615 Y83.72 E.0839
G1 X134.957 Y81.891 E.0839
G1 X133.487 Y79.909 E.08387
G1 X132.219 Y77.791 E.08389
G1 X131.164 Y75.561 E.08386
G1 X131.126 Y75.456 E.00377
G1 X131.505 Y75.278 F9000
;TYPE:Outer wall
G1 F1800
G1 X130.732 Y73.116 E.07805
G1 X130.141 Y70.761 E.08251
G1 X129.785 Y68.36 E.08247
G1 X129.666 Y65.936 E.0825
G1 X129.785 Y63.511 E.0825
G1 X130.141 Y61.111 E.08248
G1 X130.732 Y58.756 E.08251
G1 X131.549 Y56.471 E.08249
G1 X132.587 Y54.277 E.08247
G1 X133.835 Y52.195 E.0825
G1 X135.28 Y50.246 E.08247
G1 X136.91 Y48.447 E.0825
G1 X138.709 Y46.817 E.0825
G1 X140.658 Y45.371 E.08247
G1 X142.741 Y44.124 E.0825
G1 X144.934 Y43.086 E.08247
G1 X147.219 Y42.268 E.08249
G1 X149.574 Y41.678 E.08252
G1 X152.001 Y41.32 E.08338
G1 X154.399 Y41.202 E.08159
G1 X156.824 Y41.322 E.0825
G1 X159.224 Y41.678 E.08247
G1 X161.579 Y42.268 E.08251
G1 X163.864 Y43.086 E.08249
G1 X166.058 Y44.124 E.08247
G1 X168.14 Y45.371 E.0825
G1 X170.089 Y46.817 E.08247
G1 X171.888 Y48.447 E.0825
G1 X173.518 Y50.246 E.0825
M73 P1 R68
G1 X174.964 Y52.195 E.08247
G1 X176.211 Y54.277 E.0825
G1 X177.249 Y56.471 E.08247
G1 X178.066 Y58.756 E.08249
G1 X178.657 Y61.111 E.08251
G1 X179.013 Y63.511 E.08247
G1 X179.132 Y65.936 E.0825
G1 X179.013 Y68.36 E.0825
G1 X178.657 Y70.761 E.08247
G1 X178.066 Y73.116 E.08251
G1 X177.249 Y75.401 E.08249
G1 X176.211 Y77.594 E.08247
G1 X174.964 Y79.677 E.0825
G1 X173.518 Y81.626 E.08247
G1 X171.888 Y83.424 E.0825
G1 X170.089 Y85.055 E.0825
G1 X168.14 Y86.5 E.08247
G1 X166.058 Y87.748 E.0825
G1 X163.864 Y88.785 E.08247
G1 X161.579 Y89.603 E.08249
G1 X159.224 Y90.194 E.08251
G1 X156.824 Y90.55 E.08247
G1 X154.399 Y90.669 E.0825
G1 X151.974 Y90.55 E.0825
G1 X149.574 Y90.194 E.08247
G1 X147.219 Y89.603 E.08251
G1 X144.934 Y88.785 E.08249
G1 X142.741 Y87.748 E.08247
G1 X140.658 Y86.5 E.0825
G1 X138.709 Y85.055 E.08247
G1 X136.91 Y83.424 E.08251
G1 X135.28 Y81.626 E.0825
G1 X133.835 Y79.677 E.08247
G1 X132.587 Y77.594 E.0825
G1 X131.549 Y75.401 E.08247
G1 X131.519 Y75.316 E.00308
G1 E-.84
;WIPE_START
G1 X131.182 Y74.374 E-.36
;WIPE_END
G1 Z.6 F9000
G1 X186.694 Y28.23
G1 Z.6
G1 Z.2
G1 E1.2 F1800
;TYPE:Bottom surface
;WIDTH:0.460618
G1 F4800
G1 X189.4 Y30.937 E.1303
G1 X192.661 Y34.535 E.16525
G1 X193.389 Y35.516 E.04159
G1 X184.818 Y26.946 E.41254
G1 X182.533 Y25.251 E.09684
G1 X195.083 Y37.802 E.60412
G1 X195.554 Y38.437 E.02691
G1 X196.193 Y39.502 E.04227
G1 X180.833 Y24.142 E.73937
G1 X179.358 Y23.258 E.05854
G1 X197.077 Y40.977 E.85294
G1 X197.962 Y42.452 E.05854
G1 X177.883 Y22.373 E.96651
G1 X177.732 Y22.283 E.00597
G1 X176.726 Y21.807 E.0379
G1 X198.528 Y43.609 E1.04946
G1 X199.058 Y44.73 E.0422
G1 X175.605 Y21.277 E1.12893
G1 X174.484 Y20.747 E.0422
G1 X199.588 Y45.851 E1.20841
G1 X200.118 Y46.972 E.0422
G1 X173.363 Y20.216 E1.28788
G1 X172.44 Y19.884 E.03341
G1 X200.451 Y47.895 E1.34835
G1 X200.78 Y48.815 E.03324
G1 X171.52 Y19.555 E1.40845
G1 X170.6 Y19.226 E.03324
G1 X201.109 Y49.734 E1.46854
G1 X201.438 Y50.654 E.03324
G1 X169.681 Y18.897 E1.52863
G1 X168.762 Y18.569 E.03321
G1 X201.766 Y51.573 E1.58865
G1 X201.963 Y52.361 E.02766
G1 X167.974 Y18.371 E1.63611
G1 X167.185 Y18.174 E.02766
G1 X202.161 Y53.149 E1.68357
G1 X202.359 Y53.938 E.02766
G1 X166.397 Y17.976 E1.73103
G1 X165.609 Y17.779 E.02766
G1 X202.556 Y54.726 E1.77849
G1 X202.754 Y55.514 E.02766
G1 X164.821 Y17.581 E1.82594
G1 X164.035 Y17.386 E.02754
G1 X202.949 Y56.3 E1.87313
G1 X203.051 Y56.993 E.02387
G1 X163.343 Y17.285 E1.91141
G1 X162.65 Y17.183 E.02382
G1 X203.154 Y57.687 E1.94969
G1 X203.257 Y58.381 E.02387
G1 X161.958 Y17.081 E1.98798
G1 X161.265 Y16.979 E.02382
G1 X203.36 Y59.074 E2.02626
G1 X203.463 Y59.768 E.02387
G1 X160.573 Y16.878 E2.06454
G1 X159.88 Y16.776 E.02382
G1 X203.566 Y60.461 E2.10282
G1 X203.661 Y61.147 E.02358
G1 X159.188 Y16.674 E2.14075
G1 X158.566 Y16.643 E.0212
G1 X203.692 Y61.769 E2.17215
G1 X203.722 Y62.39 E.02117
G1 X157.945 Y16.613 E2.20352
G1 X157.324 Y16.582 E.02117
G1 X203.753 Y63.011 E2.23489
G1 X203.783 Y63.632 E.02117
G1 X156.702 Y16.552 E2.26626
G1 X156.081 Y16.521 E.02117
G1 X203.814 Y64.253 E2.29763
G1 X203.844 Y64.875 E.02117
G1 X155.46 Y16.491 E2.329
G1 X154.839 Y16.46 E.02117
G1 X203.875 Y65.496 E2.36038
G1 X203.888 Y66.1 E.02057
G1 X154.235 Y16.447 E2.39011
G1 X153.672 Y16.474 E.01919
G1 X203.861 Y66.663 E2.41588
G1 X203.833 Y67.226 E.01919
G1 X153.108 Y16.502 E2.44166
G1 X152.545 Y16.529 E.01919
G1 X203.805 Y67.789 E2.46743
G1 X203.778 Y68.352 E.01919
G1 X151.982 Y16.557 E2.4932
G1 X151.419 Y16.585 E.01919
G1 X203.75 Y68.915 E2.51898
G1 X203.722 Y69.479 E.01919
G1 X150.856 Y16.612 E2.54475
G1 X150.293 Y16.64 E.01919
G1 X203.695 Y70.042 E2.57052
G1 X203.667 Y70.605 E.01919
G1 X149.73 Y16.668 E2.5963
G1 X149.2 Y16.728 E.01816
G1 X203.607 Y71.135 E2.61891
G1 X203.53 Y71.649 E.0177
G1 X148.685 Y16.804 E2.64
G1 X148.171 Y16.881 E.0177
M73 P2 R68
G1 X203.454 Y72.164 E2.66109
G1 X203.378 Y72.678 E.0177
G1 X147.657 Y16.957 E2.68218
G1 X147.142 Y17.033 E.0177
G1 X203.301 Y73.193 E2.70327
G1 X203.225 Y73.707 E.0177
G1 X146.628 Y17.11 E2.72436
G1 X146.113 Y17.186 E.0177
G1 X203.149 Y74.221 E2.74545
G1 X203.073 Y74.736 E.0177
G1 X145.599 Y17.262 E2.76653
G1 X145.084 Y17.339 E.0177
G1 X202.996 Y75.25 E2.78762
G1 X202.906 Y75.751 E.0173
M73 P2 R67
G1 X144.584 Y17.429 E2.80735
G1 X144.112 Y17.547 E.01657
G1 X202.787 Y76.223 E2.82439
G1 X202.669 Y76.695 E.01657
G1 X143.64 Y17.666 E2.84143
G1 X143.167 Y17.784 E.01657
G1 X202.551 Y77.168 E2.85846
G1 X202.432 Y77.64 E.01657
G1 X142.695 Y17.903 E2.8755
G1 X142.223 Y18.021 E.01657
G1 X169.972 Y45.771 E1.33575
G1 X170.579 Y46.22 E.0257
G1 X172.433 Y47.901 E.0852
G1 X174.114 Y49.756 E.0852
G1 X174.564 Y50.362 E.0257
G1 X202.314 Y78.112 E1.33575
G1 X202.195 Y78.584 E.01657
G1 X175.946 Y52.335 E1.26354
G1 X176.829 Y53.808 E.05847
G1 X202.077 Y79.057 E1.21534
G1 X201.959 Y79.529 E.01657
G1 X177.384 Y54.955 E1.18291
G1 X177.915 Y56.076 E.04221
G1 X201.84 Y80.001 E1.15168
G1 X201.708 Y80.46 E.01625
G1 X178.261 Y57.013 E1.12864
G1 X178.591 Y57.933 E.03325
G1 X201.553 Y80.895 E1.10531
G1 X201.397 Y81.331 E.01573
G1 X178.874 Y58.807 E1.08418
G1 X179.071 Y59.595 E.02767
G1 X201.242 Y81.766 E1.06718
G1 X201.086 Y82.201 E.01573
G1 X179.269 Y60.384 E1.05017
G1 X179.414 Y60.96 E.02023
G1 X179.441 Y61.147 E.00642
G1 X200.93 Y82.636 E1.03439
G1 X200.775 Y83.071 E.01573
G1 X179.544 Y61.84 E1.02195
G1 X179.647 Y62.534 E.02387
G1 X200.619 Y83.506 E1.0095
G1 X200.464 Y83.941 E.01573
G1 X179.75 Y63.228 E.99705
G1 X179.781 Y63.435 E.00714
G1 X179.802 Y63.871 E.01484
G1 X200.308 Y84.376 E.98705
G1 X200.152 Y84.811 E.01573
G1 X179.833 Y64.492 E.97809
G1 X179.863 Y65.113 E.02117
G1 X199.968 Y85.218 E.96774
G1 X199.778 Y85.619 E.0151
G1 X179.894 Y65.734 E.95714
G1 X179.904 Y65.936 E.00686
G1 X179.885 Y66.316 E.01297
G1 X199.589 Y86.02 E.94844
G1 X199.399 Y86.421 E.0151
G1 X179.858 Y66.879 E.94064
G1 X179.83 Y67.442 E.01919
G1 X199.209 Y86.822 E.93284
G1 X199.019 Y87.223 E.0151
G1 X179.802 Y68.006 E.92504
G1 X179.763 Y68.557 E.01882
G1 X198.83 Y87.624 E.91779
G1 X198.64 Y88.025 E.0151
G1 X179.687 Y69.071 E.91234
G1 X179.61 Y69.586 E.0177
G1 X198.45 Y88.426 E.90688
G1 X198.261 Y88.827 E.0151
G1 X179.534 Y70.1 E.90143
G1 X179.458 Y70.615 E.0177
G1 X198.071 Y89.228 E.89597
G1 X197.853 Y89.601 E.01469
G1 X179.363 Y71.111 E.89
G1 X179.245 Y71.583 E.01657
G1 X197.631 Y89.97 E.88504
G1 X197.41 Y90.339 E.01466
G1 X179.127 Y72.056 E.88009
G1 X179.008 Y72.528 E.01657
G1 X197.189 Y90.708 E.87513
G1 X196.967 Y91.078 E.01466
G1 X178.89 Y73 E.87017
G1 X178.761 Y73.462 E.01632
G1 X196.746 Y91.447 E.86572
G1 X196.524 Y91.816 E.01466
G1 X178.605 Y73.897 E.86255
G1 X178.45 Y74.332 E.01573
G1 X196.303 Y92.186 E.85939
G1 X196.082 Y92.555 E.01466
G1 X178.294 Y74.767 E.85622
G1 X178.138 Y75.202 E.01573
G1 X195.86 Y92.924 E.85306
G1 X195.639 Y93.294 E.01466
G1 X177.983 Y75.637 E.84989
G1 X177.797 Y76.043 E.01518
G1 X195.399 Y93.644 E.84725
G1 X195.147 Y93.983 E.01437
G1 X177.608 Y76.444 E.84427
G1 X177.418 Y76.845 E.0151
G1 X194.896 Y94.323 E.8413
G1 X194.644 Y94.662 E.01437
G1 X177.228 Y77.246 E.83832
G1 X177.039 Y77.647 E.0151
G1 X194.393 Y95.001 E.83535
G1 X194.141 Y95.34 E.01437
G1 X176.842 Y78.041 E.83272
G1 X176.621 Y78.41 E.01466
G1 X193.89 Y95.679 E.83126
G1 X193.638 Y96.019 E.01437
G1 X176.399 Y78.78 E.82981
G1 X176.178 Y79.149 E.01466
G1 X193.387 Y96.358 E.82835
G1 X193.135 Y96.697 E.01437
G1 X175.957 Y79.518 E.8269
